X: 18859
T: In Continental Mood
R: waltz
M: 3/4
K: Gmajor
DGA|:B2 BB AB|G2 GB AB|G2 GB AB|GA BA GF|
E2 EE FG|D2 DE FG|C2 CE FG|A2 BA GA|
B2 BB AB|G2 GB AB|G2 GB AB|GA BA GF|
E2 EE FG|D2 DE FG|A2 BA GF|1 G3 DGA:|2 G3 G,B,A,||
|:G,2 B,G, B,D|F2 BF Bd|E2 GE GB|A2 BA GD|
G,2 B,G, B,D|F2 BF Bd|E2 GE GB|A3 AGF|
B,2 ^DB, DF|GA GF E2|D2 FD FA|Bc BA GF|
E2 EE FG|D2 DE FG|A2 BA GF|1 G3 G,B,A,:|2 G3 DGA||

